src/assets/svg/four-plus-logo.svg

<svg width="51" height="60" viewBox="0 0 51 60" fill="none" xmlns="http://www.w3.org/2000/svg">
<path d="M34.5 21.78V1.73003C34.5 1.20003 34.88 0.780029 35.35 0.780029H49.16C49.63 0.780029 50.01 1.21003 50.01 1.73003V25.91C50.01 26.44 49.63 26.86 49.16 26.86H39" stroke="#FFD037" stroke-width="1.5" stroke-miterlimit="10"/>
<path d="M12.49 32.28V12.23C12.49 11.7 12.87 11.28 13.34 11.28H27.15C27.62 11.28 28 11.71 28 12.23V36.41C28 36.94 27.62 37.36 27.15 37.36H16.99" stroke="#1065AD" stroke-width="1.5" stroke-miterlimit="10"/>
<path d="M16.14 58.37H2.33999C1.86999 58.37 1.48999 57.94 1.48999 57.42V33.23C1.48999 32.7 1.86999 32.28 2.33999 32.28H16.15C16.62 32.28 17 32.71 17 33.23V57.41C16.99 57.94 16.61 58.37 16.14 58.37Z" stroke="#76B911" stroke-width="1.5" stroke-miterlimit="10"/>
<path d="M38.15 47.87H24.35C23.88 47.87 23.5 47.44 23.5 46.92V22.73C23.5 22.2 23.88 21.78 24.35 21.78H38.16C38.63 21.78 39.01 22.21 39.01 22.73V46.91C39 47.44 38.62 47.87 38.15 47.87Z" stroke="#D22A13" stroke-width="1.5" stroke-miterlimit="10"/>
</svg>

<svg width="51" height="60" viewBox="0 0 51 60" fill="none" xmlns="http://www.w3.org/2000/svg">
  <path d="M34.5 21.78V1.73c0-.53.38-.95.85-.95h13.81c.47 0 .85.43.85.95v24.18c0 .53-.38.95-.85.95H39" stroke="#FFD037" stroke-width="1.5" stroke-miterlimit="10"/>
  <path d="M12.49 32.28V12.23c0-.53.38-.95.85-.95h13.81c.47 0 .85.43.85.95v24.18c0 .53-.38.95-.85.95H16.99" stroke="#1065AD" stroke-width="1.5" stroke-miterlimit="10"/>
  <path d="M16.14 58.37H2.34c-.47 0-.85-.43-.85-.95V33.23c0-.53.38-.95.85-.95h13.81c.47 0 .85.43.85.95v24.18c-.01.53-.39.96-.86.96z" stroke="#76B911" stroke-width="1.5" stroke-miterlimit="10"/>
  <path d="M38.15 47.87h-13.8c-.47 0-.85-.43-.85-.95V22.73c0-.53.38-.95.85-.95h13.81c.47 0 .85.43.85.95v24.18c-.01.53-.39.96-.86.96z" stroke="#D22A13" stroke-width="1.5" stroke-miterlimit="10"/>
</svg>
